X:7
T:Wragg’s Duetto the 12th.2voices. RH.007
R:march
S:Rev.R.Harrison’s MS,c1815,Cumbria
O:England
A:Temple Sowerby,Cumbria
N:Occupies more than one page so may not all display on screen.
N:However, it will print if your settings allow.CGP.
Z:vmp.Simon Wilson. Review PJH, 2008.
M:2/4
L:1/16
Q:1/4=100
K:D
[V:1]|:A2|d2dd d2d2|fede d2e2|f2ff f2f2|(agfg) f2a2|
[V:2]|:z2|z8|z4z2A2|d2dd d2d2|(fed)e d2e2|
%
[V:1] d’2aa a2fg|d’2aa a2fg|a2a2 bagf|(edc)B A2A2|d2dd d2d2|(fed)e d2e2|
[V:2] f2ff f2d2|f2f2 f2de|f2f2 (gfe)d|cBAG A2z2|z8|z4z2A2|
%
[V:1] f2ff f2f2|(agf)g f2a2|d’2aa (gf)(ed)|(cd)(ef) (ga)(bc)|d'(dfa) afef|d2d2d2:|
[V:2] d2dd d2d2|fede d2e2|d2f2 (edc)B|A2cd (efg)e|f2d2 A2A2|F2F2F2:|
%
[V:1]|:cd|e3f (edc)B|A2a2A2 fg|a3d (agf)g|d2d’2d2 (fg)|
[V:2]|:AB|c3d cBAG|A2c2A2 de|f3g fedc|d2F2F2 (de)|
%
[V:1] a3b (agf)g|a3b (agf)e|d2d’2e2e’2|(cde)c A2A2|d2dd d2d2|fede d2e2|
[V:2] f3g (fed)e|e3f (fed)c|d2F2 G2^G2|A3B AGFE|D2 z2z4|z4z2A2|
%
[V:1] f2ff f2f2|(agf)g f2a2|d’2aa a2fa|d’2aa a2fg|a2a2 (bag)f|(edc)B A2A2|
[V:2] d2dd d2d2|(fed)e d2f2|d2f2 d2d2|f2f2 f2de|f2f2 gfed|cBAG A2z2|
%
[V:1] d2dd d2d2|(fed)e d2e2|f2ff f2f2|(agf)g f2a2|(d’c’d’)a gfed|ABcd efge|
[V:2] z8|z4 z2A2|d2dd d2d2|fede d2f2|d2f2 (edc)B|A2AB (cde)c|
%
[V:1] (fa)df fedc|{de}d’4b4|ad’fa (ag)fe|d2d’2d’2:|
[V:2] d2F2G2A2|F.f.f.f G.g.g.g|f2d2 fedc|d2f2f2:|

